X:2
T:Christmas Song
C:Torme-Wells
L:1/8
M:C
I:linebreak $
K:Eb
"Eb" E2 e2"Fm" dcBA |"Gm" G2 G2"Ab" G4 |"Eb" E2 c2"Bbm" BA"Eb7"GF |"Ab" E4"Db7" z4 |$
"Eb" E2 E2"Fm" FFEF Ox/||1"Gm" (3G2 B2 c2"Aø" (3d2 z2"D7" c2 |
"G" =B2 =B2"Abm" _d_c"Db7"_BA |"Gb" B4"Bb7" BAGF :|2$"Gm" (3G2 B2 c2"Aø" (3d2 z2"D7" c2 |
"Gm" BG"C7"cB"Fm" A2"Bb7" D2 |"Eb" E4 z EDE ||[K:Ab]"Bbm" d4"Eb7" z cBA |$"Ab" B4"Fm" z E=DE |
"Bbm" dcdc"Eb7" dcBA |"Ab" B4"Fm" z E=DE ||[K:Gb]"Abm" c4"Db7" z BAG |$"Gb" A4 z"Ebm" GAG |
"Cm" F F2 F/F/"B7" (3F2 F2 F2 |"Fm" F4"Bb7" z2"_D.C. al Coda" =G2 ||$
[K:Eb]Ox/"Gm" (3G2 B2 c2"Aø" d2"D7" ec |"Gm" B2"Cm" E2"Fm" z2"Bb7" F2 |"Eb" E8 |]

